src/icons/svgs/24/file-pdf.svg

<svg width="24" height="24" viewBox="0 0 24 24" fill="none" xmlns="http://www.w3.org/2000/svg">
<path d="M19.2208 5.46527L16.1113 2.69543C15.6083 2.25019 14.9292 2 14.225 2H6.66667C5.19375 2 4 3.06318 4 4.375L4.00025 18.625C4.00025 19.9364 5.194 21 6.66692 21H17.3333C18.8 21 20 19.9312 20 18.625V7.14336C20 6.51621 19.7208 5.91133 19.2208 5.46527ZM18 18.625C18 18.9529 17.7015 19.2188 17.3333 19.2188H6.6675C6.29925 19.2188 6.00083 18.9529 6.00083 18.625L6 4.37982C6 4.05193 6.2985 3.78607 6.66667 3.78607H13.3333V6.75C13.3333 7.40572 13.9304 7.9375 14.6667 7.9375H17.9625V18.625H18ZM12.4167 12.617C12.4532 12.5172 12.4892 12.4167 12.5243 12.3147C12.584 12.1009 12.8363 11.1443 12.8363 10.3676C12.8375 9.68164 12.2125 9.125 11.4417 9.125C10.6708 9.125 10.0458 9.68164 10.0458 10.3682C10.0458 10.3792 10.0527 11.4373 10.6229 12.6801C10.3298 13.3985 9.97417 14.1199 9.56417 14.8298C8.66875 15.205 7.92917 15.6548 7.36417 16.1684C7.10442 16.4073 6.97388 16.7154 6.97388 17.0857C6.97388 17.7704 7.59929 18.3274 8.36804 18.3274C8.81804 18.3274 9.24221 18.1334 9.50221 17.8086C9.80729 17.4271 10.268 16.8104 10.7718 15.9921C11.4301 15.7564 12.1835 15.5572 13.0168 15.3983C13.5814 15.7538 14.221 16.04 14.9214 16.25C15.11 16.3076 15.3131 16.3371 15.5226 16.3371C16.3668 16.3371 17.028 15.7363 17.028 14.9693C17.028 14.2148 16.3389 13.6011 15.4918 13.6011H15.3374C15.2238 13.6057 14.4828 13.6434 13.447 13.8002C13.0375 13.4631 12.6917 13.0697 12.4167 12.617ZM8.59167 17.2297C8.45529 17.4037 8.09042 17.3327 8.09042 17.0326C8.09042 16.9675 8.11663 16.9053 8.16246 16.8635C8.53829 16.5214 8.99329 16.2308 9.48954 15.9833C9.09583 16.5877 8.7625 17.0182 8.59167 17.2297ZM11.4417 10.1195C11.5955 10.1195 11.721 10.2312 11.721 10.3683C11.721 10.9327 11.5498 11.6612 11.4815 11.9306C11.1708 11.0918 11.1625 10.4312 11.1625 10.3682C11.1625 10.2309 11.2875 10.1195 11.4417 10.1195ZM10.7625 14.9252C11.0605 14.3837 11.3299 13.8302 11.57 13.2664C11.8362 13.6716 12.1767 14.0776 12.61 14.4528C12.025 14.5727 11.3917 14.7248 10.7625 14.9252ZM15.35 14.5986H15.4897C15.7205 14.5986 15.9084 14.7656 15.9084 14.999C15.9084 15.1894 15.7344 15.3449 15.5201 15.3449C15.4355 15.3449 15.351 15.3332 15.2763 15.31C14.7625 15.1565 14.3133 14.9641 13.9204 14.7463C14.7625 14.6283 15.3375 14.5986 15.35 14.5986Z" fill="black"/>
</svg>

<svg width="24" height="24" viewBox="0 0 24 24" xmlns="http://www.w3.org/2000/svg">
    <path d="m19.22 5.465-3.109-2.77A2.855 2.855 0 0 0 14.225 2H6.667C5.194 2 4 3.063 4 4.375v14.25C4 19.936 5.194 21 6.667 21h10.666C18.8 21 20 19.931 20 18.625V7.143c0-.627-.28-1.232-.78-1.678zM18 18.625c0 .328-.299.594-.667.594H6.668c-.369 0-.667-.266-.667-.594L6 4.38c0-.328.298-.594.667-.594h6.666V6.75c0 .656.597 1.188 1.334 1.188h3.295v10.687H18zm-5.583-6.008c.036-.1.072-.2.107-.302.06-.214.312-1.17.312-1.947.002-.686-.623-1.243-1.394-1.243-.771 0-1.396.557-1.396 1.243 0 .011.007 1.07.577 2.312-.293.719-.649 1.44-1.059 2.15-.895.375-1.635.825-2.2 1.338-.26.24-.39.547-.39.918 0 .684.625 1.241 1.394 1.241.45 0 .874-.194 1.134-.518.305-.382.766-.999 1.27-1.817a15.093 15.093 0 0 1 2.245-.594 7.738 7.738 0 0 0 1.904.852c.189.058.392.087.602.087.844 0 1.505-.6 1.505-1.368 0-.754-.69-1.368-1.536-1.368h-.155c-.113.005-.854.042-1.89.2a4.66 4.66 0 0 1-1.03-1.184zM8.592 17.23c-.137.174-.502.103-.502-.197a.23.23 0 0 1 .072-.17 5.85 5.85 0 0 1 1.328-.88 15.35 15.35 0 0 1-.898 1.247zm2.85-7.11c.153 0 .279.111.279.248 0 .565-.171 1.293-.24 1.563-.31-.84-.319-1.5-.319-1.563 0-.137.125-.248.28-.248zm-.68 4.805c.298-.541.568-1.095.808-1.659.266.406.607.812 1.04 1.187a18.27 18.27 0 0 0-1.848.472zm4.588-.326h.14c.23 0 .418.167.418.4 0 .19-.174.346-.388.346a.834.834 0 0 1-.244-.035 6.8 6.8 0 0 1-1.356-.564 17.353 17.353 0 0 1 1.43-.147z"/>
</svg>
